icons/evolvere-blue-folders-flat-vivid-dark-fallback/mimetypes/64/package-tar.bz.svg

<?xml version="1.0" encoding="UTF-8" standalone="no"?>
<!-- Created with Inkscape (http://www.inkscape.org/) -->

<svg
   xmlns:dc="http://purl.org/dc/elements/1.1/"
   xmlns:cc="http://creativecommons.org/ns#"
   xmlns:rdf="http://www.w3.org/1999/02/22-rdf-syntax-ns#"
   xmlns:svg="http://www.w3.org/2000/svg"
   xmlns="http://www.w3.org/2000/svg"
   xmlns:sodipodi="http://sodipodi.sourceforge.net/DTD/sodipodi-0.dtd"
   xmlns:inkscape="http://www.inkscape.org/namespaces/inkscape"
   version="1.1"
   width="64"
   height="64"
   id="svg13094"
   inkscape:version="0.91+devel r"
   sodipodi:docname="package-tar.bz.svg">
  <sodipodi:namedview
     pagecolor="#ffffff"
     bordercolor="#666666"
     borderopacity="1"
     objecttolerance="10"
     gridtolerance="10"
     guidetolerance="10"
     inkscape:pageopacity="0"
     inkscape:pageshadow="2"
     inkscape:window-width="1920"
     inkscape:window-height="1023"
     id="namedview44"
     showgrid="false"
     inkscape:zoom="10.429825"
     inkscape:cx="37.419053"
     inkscape:cy="29.216441"
     inkscape:window-x="-10"
     inkscape:window-y="35"
     inkscape:window-maximized="1"
     inkscape:current-layer="svg13094" />
  <defs
     id="defs11" />
  <metadata
     id="metadata13099">
    <rdf:RDF>
      <cc:Work
         rdf:about="">
        <dc:format>image/svg+xml</dc:format>
        <dc:type
           rdf:resource="http://purl.org/dc/dcmitype/StillImage" />
        <dc:title></dc:title>
      </cc:Work>
    </rdf:RDF>
  </metadata>
  <path
     d="M 0,1 2,0 62,0 64,1 64,17 0,17 Z"
     id="path3029"
     style="fill:#d8bd6f;fill-opacity:1;fill-rule:nonzero"
     inkscape:connector-curvature="0"
     sodipodi:nodetypes="ccccccc" />
  <path
     d="m 0,16 64,0 0,46 -2,2 -60,0 -2,-2 z"
     id="path3809"
     style="color:#000000;display:inline;overflow:visible;visibility:visible;fill:#a07c46;fill-opacity:1;fill-rule:nonzero;stroke-width:1;stroke-linecap:butt;stroke-linejoin:miter;stroke-miterlimit:4;stroke-dasharray:none;stroke-dashoffset:0;stroke-opacity:1;marker:none;enable-background:accumulate"
     inkscape:connector-curvature="0"
     sodipodi:nodetypes="ccccccc" />
  <path
     d="m 0,16 64,0 0,46 -2,2 -60,0 -2,-2 z"
     id="path3831"
     style="fill:#a6854c;fill-opacity:1;fill-rule:nonzero"
     inkscape:connector-curvature="0"
     sodipodi:nodetypes="ccccccc" />
  <path
     d="m 0,62 2,2 30,0 0,-24 -32,0 z"
     id="path3847"
     style="fill:#9c7a44;fill-opacity:1;fill-rule:nonzero;opacity:1;stroke-width:1;stroke-linecap:butt;stroke-linejoin:miter;stroke-miterlimit:4;stroke-dasharray:none;stroke-dashoffset:0;stroke-opacity:1"
     inkscape:connector-curvature="0"
     sodipodi:nodetypes="cccccc" />
  <path
     d="m 64,62 -2,2 -30,0 0,-24 32,0 z"
     id="path3835"
     style="fill:#9c7a44;fill-opacity:1;fill-rule:nonzero;opacity:1;stroke-width:1;stroke-linecap:butt;stroke-linejoin:miter;stroke-miterlimit:4;stroke-dasharray:none;stroke-dashoffset:0;stroke-opacity:1"
     inkscape:connector-curvature="0"
     sodipodi:nodetypes="cccccc" />
  <path
     d="m 0,16 32,0 0,24 -32,0 z"
     id="path3839"
     style="fill:#9c7a44;fill-opacity:1;fill-rule:nonzero;opacity:1;stroke-width:1;stroke-linecap:butt;stroke-linejoin:miter;stroke-miterlimit:4;stroke-dasharray:none;stroke-dashoffset:0;stroke-opacity:1"
     inkscape:connector-curvature="0"
     sodipodi:nodetypes="ccccc" />
  <path
     d="m 64,16 -32,0 0,24 32,0 z"
     id="path3843"
     style="fill:#9c7a44;fill-opacity:1;fill-rule:nonzero;opacity:1;stroke-width:1;stroke-linecap:butt;stroke-linejoin:miter;stroke-miterlimit:4;stroke-dasharray:none;stroke-dashoffset:0;stroke-opacity:1"
     inkscape:connector-curvature="0"
     sodipodi:nodetypes="ccccc" />
  <path
     d="m 64,16 -32,0 0,-7.846939 32,0 z"
     id="path3813"
     style="fill:#d7b871;fill-opacity:1;fill-rule:nonzero"
     inkscape:connector-curvature="0"
     sodipodi:nodetypes="ccccc" />
  <path
     d="m 0,16 32,0 0,-7.846939 -32,0 z"
     id="path3811"
     style="fill:#d2b164;fill-opacity:1;fill-rule:nonzero"
     inkscape:connector-curvature="0"
     sodipodi:nodetypes="ccccc" />
  <path
     d="m 64,1 -2,-1 -30,0 0,8.153061 32,0 z"
     id="path3815"
     style="fill:#d2b164;fill-opacity:1;fill-rule:nonzero"
     inkscape:connector-curvature="0"
     sodipodi:nodetypes="cccccc" />
  <path
     d="m 0,1 2,-1 30,0 0,8.153061 -32,0 z"
     id="path3960"
     style="fill:#d7b871;fill-opacity:1;fill-rule:nonzero"
     inkscape:connector-curvature="0"
     sodipodi:nodetypes="cccccc" />
  <path
     d="m 64,18 -2,-2 2,-1 z"
     id="path3028"
     style="fill:#ba9c59;fill-opacity:1"
     inkscape:connector-curvature="0"
     sodipodi:nodetypes="cccc" />
  <path
     d="M 0,18 2,16 0,15 Z"
     id="path3028-3"
     style="fill:#dbc071;fill-opacity:1"
     inkscape:connector-curvature="0"
     sodipodi:nodetypes="cccc" />
  <path
     sodipodi:nodetypes="ccccscccccccccccccccsccccccccccsccccccccccccccccccccccccccccccccccsccccccccccccccccsccscc"
     inkscape:connector-curvature="0"
     id="path3257"
     d="m 28.28125,20 0,14.09375 2.5625,0 0,-6.03125 2.1875,0 c 0.61439,0 0.98494,-0.0064 1.09375,0 0.14719,0.2432 0.53545,1.02537 1.15625,2.34375 l 1.625,3.6875 2.84375,0 L 37.65625,29.75 c -0.51201,-1.05598 -0.93566,-1.76585 -1.28125,-2.15625 1.69597,-0.58879 2.53124,-1.81871 2.53125,-3.6875 -1e-5,-0.63358 -0.07721,-1.19544 -0.25,-1.65625 -0.16641,-0.46718 -0.39311,-0.83699 -0.6875,-1.125 C 37.68074,20.83702 37.28608,20.60391 36.8125,20.4375 36.3453,20.26472 35.86854,20.15776 35.34375,20.09375 34.82535,20.02976 34.21039,20.00001 33.5,20 z M 42,20 l 0,8 2.96875,0 c 0.942885,0 1.687225,-0.196935 2.21875,-0.59375 0.535147,-0.396814 0.781243,-0.965164 0.78125,-1.71875 -7e-6,-0.498746 -0.112891,-0.91143 -0.375,-1.25 -0.262123,-0.342203 -0.661147,-0.59861 -1.15625,-0.71875 0.200222,-0.06188 0.381984,-0.14078 0.53125,-0.25 0.149255,-0.11285 0.26001,-0.227249 0.34375,-0.34375 0.08373,-0.116491 0.16778,-0.233016 0.21875,-0.375 0.05096,-0.145615 0.07918,-0.293389 0.09375,-0.40625 C 47.63954,22.2309 47.656243,22.116502 47.65625,22 47.656243,21.279187 47.395586,20.7782 46.875,20.46875 46.354404,20.159315 45.559381,20.000008 44.5,20 z m 6.90625,0 0,1.1875 4.0625,0 -4.21875,5.875 0,0.9375 6,0 0,-1.1875 -4.1875,0 4.15625,-5.75 0,-1.0625 z M 5.25,20.03125 l 0,2.09375 4.09375,0 0,11.96875 2.625,0 0,-11.96875 4.0625,0 0,-2.09375 z m 14.34375,0 -5.1875,14.0625 2.71875,0 1.40625,-3.96875 4.9375,0 1.375,3.96875 2.6875,0 -5.09375,-14.0625 z m 23.875,1.0625 0.96875,0 c 0.615241,7e-6 1.063427,0.06221 1.34375,0.21875 0.283954,0.156548 0.437495,0.456349 0.4375,0.875 -5e-6,0.746308 -0.48946,1.125005 -1.46875,1.125 l -1.28125,0 z m -12.625,0.84375 3,0 c 0.90878,10e-6 1.58965,0.14236 2.03125,0.46875 0.44159,0.32641 0.65624,0.84007 0.65625,1.53125 -1e-5,0.7872 -0.22106,1.36036 -0.65625,1.71875 -0.4352,0.35201 -1.15787,0.53126 -2.15625,0.53125 l -1.4375,0 c -0.8576,-0.0064 -1.34151,10e-6 -1.4375,0 z m -9.8125,0.53125 c 0.03199,0.12161 0.62925,2.02599 1.78125,5.71875 l -3.625,0 z m 22.4375,1.875 1.25,0 c 0.593397,4e-6 1.028536,0.08467 1.3125,0.28125 0.283954,0.19659 0.437494,0.520971 0.4375,0.96875 -6e-6,0.888284 -0.582918,1.343751 -1.71875,1.34375 l -1.28125,0 z"
     style="fill:#efe3b6;fill-opacity:1;color:#000000;fill-rule:nonzero;stroke-width:1;stroke-linecap:butt;stroke-linejoin:miter;stroke-miterlimit:4;stroke-opacity:1;stroke-dasharray:none;stroke-dashoffset:0;marker:none;visibility:visible;display:inline;overflow:visible;enable-background:accumulate;opacity:1" />
  <path
     style="fill:#642400;fill-opacity:0.14042933;color:#000000;fill-rule:nonzero;stroke-width:1;stroke-linecap:butt;stroke-linejoin:miter;stroke-miterlimit:4;stroke-opacity:1;stroke-dasharray:none;stroke-dashoffset:0;marker:none;visibility:visible;display:inline;overflow:visible;enable-background:accumulate;opacity:1"
     d="M 54.71875 21 L 54.71875 21.0625 L 53.90625 22.1875 L 53.96875 22.1875 L 50.65625 26.8125 L 52.28125 26.8125 L 55.71875 22.0625 L 55.71875 21 L 54.71875 21 z M 16.03125 21.03125 L 16.03125 22.125 L 11.96875 22.125 L 11.96875 34.09375 L 10.34375 34.09375 L 10.34375 35.09375 L 12.96875 35.09375 L 12.96875 23.125 L 17.03125 23.125 L 17.03125 21.03125 L 16.03125 21.03125 z M 22.8125 21.03125 L 27.53125 34.09375 L 25.5 34.09375 L 25.84375 35.09375 L 28.53125 35.09375 L 23.4375 21.03125 L 22.8125 21.03125 z M 43.46875 21.09375 L 43.46875 23.3125 L 44.46875 23.3125 L 44.46875 22.09375 L 45.4375 22.09375 C 45.733359 22.093753 46.000244 22.123907 46.21875 22.15625 C 46.210568 21.755448 46.057413 21.464752 45.78125 21.3125 C 45.500927 21.15596 45.052741 21.093757 44.4375 21.09375 L 43.46875 21.09375 z M 49.90625 21.1875 L 49.90625 22.1875 L 52.25 22.1875 L 52.96875 21.1875 L 49.90625 21.1875 z M 47.53125 21.3125 C 47.601131 21.518899 47.656247 21.736027 47.65625 22 C 47.656243 22.116502 47.63954 22.2309 47.625 22.34375 C 47.61043 22.456611 47.58221 22.604385 47.53125 22.75 C 47.48028 22.891984 47.39623 23.008509 47.3125 23.125 C 47.293468 23.151477 47.240707 23.161233 47.21875 23.1875 C 47.21875 23.198982 47.218982 23.207442 47.21875 23.21875 C 47.212579 23.519815 47.107944 23.760614 46.9375 23.9375 C 47.195537 24.071677 47.431234 24.225334 47.59375 24.4375 C 47.636405 24.492597 47.652593 24.565926 47.6875 24.625 C 47.69003 24.629281 47.71626 24.620698 47.71875 24.625 C 47.807877 24.583887 47.894117 24.52336 47.96875 24.46875 C 48.118005 24.3559 48.22876 24.241501 48.3125 24.125 C 48.39623 24.008509 48.48028 23.891984 48.53125 23.75 C 48.58221 23.604385 48.61043 23.456611 48.625 23.34375 C 48.63954 23.2309 48.65624 23.116502 48.65625 23 C 48.656243 22.279187 48.395586 21.7782 47.875 21.46875 C 47.774599 21.409073 47.651992 21.360943 47.53125 21.3125 z M 38.40625 21.71875 C 38.500217 21.884335 38.584981 22.049919 38.65625 22.25 C 38.82904 22.71081 38.90624 23.27267 38.90625 23.90625 C 38.90624 25.77504 38.07097 27.00496 36.375 27.59375 C 36.72059 27.98415 37.14424 28.69402 37.65625 29.75 L 39.75 34.09375 L 37.46875 34.09375 L 37.90625 35.09375 L 40.75 35.09375 L 38.65625 30.75 C 38.14424 29.69402 37.72059 28.98415 37.375 28.59375 C 39.07097 28.00496 39.90624 26.77504 39.90625 24.90625 C 39.90624 24.27267 39.82904 23.71081 39.65625 23.25 C 39.48984 22.78282 39.26314 22.41301 38.96875 22.125 C 38.810903 21.96717 38.6236 21.84167 38.40625 21.71875 z M 30.84375 21.9375 L 30.84375 26.1875 C 30.910526 26.187507 31.406311 26.187233 31.84375 26.1875 L 31.84375 22.9375 L 34.84375 22.9375 C 35.479142 22.937507 35.997563 23.002828 36.40625 23.15625 C 36.300108 22.84609 36.129213 22.594156 35.875 22.40625 C 35.4334 22.07986 34.75253 21.93751 33.84375 21.9375 L 30.84375 21.9375 z M 6.25 22.125 L 6.25 23.125 L 9.34375 23.125 L 9.34375 22.125 L 6.25 22.125 z M 21.03125 22.46875 L 19.1875 28.1875 L 20.5 28.1875 L 21.6875 24.5625 C 21.524588 24.039205 21.042969 22.513299 21.03125 22.46875 z M 43.46875 24.34375 L 43.46875 26.9375 L 44.46875 26.9375 L 44.46875 25.34375 L 45.71875 25.34375 C 45.991864 25.343752 46.230745 25.367723 46.4375 25.40625 C 46.398579 25.057804 46.27233 24.791907 46.03125 24.625 C 45.747286 24.42842 45.312147 24.343754 44.71875 24.34375 L 43.46875 24.34375 z M 47.8125 24.875 C 47.905836 25.118926 47.968746 25.381568 47.96875 25.6875 C 47.968744 26.329761 47.759105 26.805857 47.375 27.1875 C 47.356412 27.230536 47.335822 27.273083 47.3125 27.3125 C 47.273568 27.346242 47.230069 27.374685 47.1875 27.40625 C 46.923213 27.733755 46.473781 27.926406 45.8125 27.9375 C 45.792064 27.940766 45.770694 27.934485 45.75 27.9375 C 45.501124 27.973755 45.254492 28 44.96875 28 L 43 28 L 43 29 L 45.96875 29 C 46.911635 29 47.655975 28.803065 48.1875 28.40625 C 48.434491 28.223105 48.621931 28.007572 48.75 27.75 L 48.75 27.0625 L 48.96875 26.75 C 48.969174 26.72823 48.96875 26.709588 48.96875 26.6875 C 48.968743 26.188754 48.855859 25.77607 48.59375 25.4375 C 48.405021 25.191114 48.127931 25.013595 47.8125 24.875 z M 54.75 27.8125 L 54.75 28 L 49.78125 28 L 49.75 28.0625 L 49.75 29 L 55.75 29 L 55.75 27.8125 L 54.75 27.8125 z M 30.84375 28.0625 L 30.84375 34.09375 L 29.28125 34.09375 L 29.28125 35.09375 L 31.84375 35.09375 L 31.84375 29.0625 L 34.03125 29.0625 C 34.364776 29.0625 34.438054 29.063201 34.625 29.0625 C 34.474465 28.761404 34.187967 28.16654 34.125 28.0625 C 34.01619 28.0561 33.64564 28.0625 33.03125 28.0625 L 30.84375 28.0625 z M 18.53125 30.125 L 17.125 34.09375 L 15.78125 34.09375 L 15.40625 35.09375 L 18.125 35.09375 L 19.53125 31.125 L 23.8125 31.125 L 23.46875 30.125 L 18.53125 30.125 z "
     id="path3816" />
</svg>

<svg xmlns="http://www.w3.org/2000/svg" viewBox="0 0 64 64"><path d="m0 1l2-1h60l2 1v16h-64" fill="#d8bd6f"/><path d="m0 16h64v46l-2 2h-60l-2-2z" fill="#a07c46" color="#000"/><path d="m0 16h64v46l-2 2h-60l-2-2z" fill="#a6854c"/><g fill="#9c7a44"><path d="m0 62l2 2h30v-24h-32z"/><path d="m64 62l-2 2h-30v-24h32z"/><path d="m0 16h32v24h-32z"/><path d="m64 16h-32v24h32z"/></g><path d="m64 16h-32v-7.847h32z" fill="#d7b871"/><g fill="#d2b164"><path d="m0 16h32v-7.847h-32z"/><path d="m64 1l-2-1h-30v8.153h32z"/></g><path d="m0 1l2-1h30v8.153h-32z" fill="#d7b871"/><path d="m64 18l-2-2 2-1z" fill="#ba9c59"/><path d="m0 18l2-2-2-1" fill="#dbc071"/><g color="#000"><path d="m28.28 20v14.09h2.563v-6.03h2.188c.614 0 .985-.006 1.094 0 .147.243.535 1.025 1.156 2.344l1.625 3.688h2.844l-2.094-4.344c-.512-1.056-.936-1.766-1.281-2.156 1.696-.589 2.531-1.819 2.531-3.688 0-.634-.077-1.195-.25-1.656-.166-.467-.393-.837-.688-1.125-.288-.288-.683-.521-1.156-.688-.467-.173-.944-.28-1.469-.344-.518-.064-1.133-.094-1.844-.094zm13.719 0v8h2.969c.943 0 1.687-.197 2.219-.594.535-.397.781-.965.781-1.719 0-.499-.113-.911-.375-1.25-.262-.342-.661-.599-1.156-.719.2-.062.382-.141.531-.25.149-.113.26-.227.344-.344.084-.116.168-.233.219-.375.051-.146.079-.293.094-.406.015-.113.031-.227.031-.344 0-.721-.261-1.222-.781-1.531-.521-.309-1.316-.469-2.375-.469zm6.906 0v1.188h4.063l-4.219 5.875v.938h6v-1.188h-4.188l4.156-5.75v-1.063zm-43.656.031v2.094h4.094v11.969h2.625v-11.969h4.063v-2.094zm14.344 0l-5.188 14.06h2.719l1.406-3.969h4.938l1.375 3.969h2.688l-5.094-14.06zm23.875 1.063h.969c.615 0 1.063.062 1.344.219.284.157.437.456.438.875 0 .746-.489 1.125-1.469 1.125h-1.281zm-12.625.844h3c.909 0 1.59.142 2.031.469.442.326.656.84.656 1.531 0 .787-.221 1.36-.656 1.719-.435.352-1.158.531-2.156.531h-1.438c-.858-.006-1.342 0-1.438 0zm-9.813.531c.032.122.629 2.026 1.781 5.719h-3.625zm22.438 1.875h1.25c.593 0 1.029.085 1.313.281.284.197.437.521.438.969 0 .888-.583 1.344-1.719 1.344h-1.281z" fill="#efe3b6"/><path d="m54.719 21v.063l-.813 1.125h.063l-3.313 4.625h1.625l3.438-4.75v-1.063h-1m-38.688.031v1.094h-4.063v11.969h-1.625v1h2.625v-11.969h4.063v-2.094h-1m6.781 0l4.719 13.06h-2.031l.344 1h2.688l-5.094-14.06h-.625m20.656.063v2.219h1v-1.219h.969c.296 0 .563.03.781.063-.008-.401-.161-.691-.438-.844-.28-.157-.729-.219-1.344-.219h-.969m6.438.094v1h2.344l.719-1h-3.063m-2.375.125c.07.206.125.424.125.688 0 .117-.017.231-.031.344-.015.113-.043.261-.094.406-.051.142-.135.259-.219.375-.019.026-.072.036-.094.063 0 .011 0 .02 0 .031-.006.301-.111.542-.281.719.258.134.494.288.656.5.043.055.059.128.094.188.003.004.029-.004.031 0 .089-.041.175-.102.25-.156.149-.113.26-.227.344-.344.084-.116.168-.233.219-.375.051-.146.079-.293.094-.406.015-.113.031-.227.031-.344 0-.721-.261-1.222-.781-1.531-.1-.06-.223-.108-.344-.156m-9.125.406c.094.166.179.331.25.531.173.461.25 1.023.25 1.656 0 1.869-.835 3.099-2.531 3.688.346.39.769 1.1 1.281 2.156l2.094 4.344h-2.281l.438 1h2.844l-2.094-4.344c-.512-1.056-.936-1.766-1.281-2.156 1.696-.589 2.531-1.819 2.531-3.688 0-.634-.077-1.195-.25-1.656-.166-.467-.393-.837-.688-1.125-.158-.158-.345-.283-.563-.406m-7.563.219v4.25c.067 0 .563 0 1 0v-3.25h3c.635 0 1.154.065 1.563.219-.106-.31-.277-.562-.531-.75-.442-.326-1.122-.469-2.031-.469h-3m-24.594.188v1h3.094v-1h-3.094m14.781.344l-1.844 5.719h1.313l1.188-3.625c-.163-.523-.645-2.049-.656-2.094m22.438 1.875v2.594h1v-1.594h1.25c.273 0 .512.024.719.063-.039-.348-.165-.614-.406-.781-.284-.197-.719-.281-1.313-.281h-1.25m4.344.531c.093.244.156.507.156.813 0 .642-.21 1.118-.594 1.5-.019.043-.039.086-.063.125-.039.034-.082.062-.125.094-.264.328-.714.52-1.375.531-.02.003-.042-.003-.063 0-.249.036-.496.063-.781.063h-1.969v1h2.969c.943 0 1.687-.197 2.219-.594.247-.183.434-.399.563-.656v-.688l.219-.313c0-.022 0-.04 0-.063 0-.499-.113-.911-.375-1.25-.189-.246-.466-.424-.781-.563m6.938 2.938v.188h-4.969l-.031.063v.938h6v-1.188h-1m-23.906.25v6.03h-1.563v1h2.563v-6.03h2.188c.334 0 .407.001.594 0-.151-.301-.437-.896-.5-1-.109-.006-.479 0-1.094 0h-2.188m-12.313 2.063l-1.406 3.969h-1.344l-.375 1h2.719l1.406-3.969h4.281l-.344-1h-4.938" fill="#642400" fill-opacity=".14"/></g></svg>
